Papirus-Adapta/24x24/panel/gpmdp-tray-play.svg

<svg xmlns="http://www.w3.org/2000/svg" width="24" height="24" version="1.1">
 <defs>
  <style id="current-color-scheme" type="text/css">
   .ColorScheme-Text { color:#cfd8dc; } .ColorScheme-Highlight { color:#00b4cb; }
  </style>
 </defs>
 <path style="fill:currentColor" class="ColorScheme-Text" d="m 21.999852,18 -2.5,1.5 -2.5,1.5 0,-3 0,-3 2.5,1.499999 z M 5.8320309,4.0002593 C 5.6214573,4.0047944 5.4381958,4.080638 5.3007809,4.2170559 5.105581,4.4080564 5,4.7172569 5,5.117447 l 0,13.759765 c 0,0.40016 0.114581,0.709411 0.3007809,0.900391 0.2837199,0.28193 0.7270616,0.307932 1.2324222,0.0078 l 3.5878899,-2.091785 7.763672,-4.523437 c 0.03827,-0.193779 0.06696,-0.389329 0.08594,-0.585937 -0.01899,0.196608 -0.04767,0.392158 -0.08594,0.585937 l 0.476562,-0.277344 c 0.85117,-0.49111 0.85117,-1.290815 0,-1.791015 l -0.478516,-0.279297 c -0.54756,-2.7493579 -2.972238,-4.8222661 -5.882812,-4.8222661 -0.65436,0 -1.284239,0.106345 -1.873046,0.3007817 L 6.5332031,4.2072901 C 6.2805126,4.0617754 6.0426045,3.9957112 5.8320309,4.0002593 Z m 3.658203,2.5566403 c -0.063642,0.029539 -0.1250866,0.062064 -0.1874997,0.09375 0.062376,-0.031656 0.1238916,-0.064233 0.1874997,-0.09375 z M 8.8828119,6.8850247 C 8.8115549,6.9287287 8.7411363,6.9732367 8.6718746,7.0197903 8.7412116,6.9732213 8.811478,6.9287413 8.8828119,6.8850247 Z m 3.1171871,0.1152348 c 2.773606,0 5,2.2266825 5,4.9999995 2.5e-5,0.18825 -0.03354,0.373712 -0.05469,0.560547 l -6.896481,4.015625 C 9.9205638,16.520871 9.7873303,16.476581 9.6640621,16.410415 l -0.021485,-0.01172 -0.023435,-0.01172 c -0.018751,-0.0089 -0.015318,-0.0025 -0.033203,-0.0098 -0.011034,-0.0088 -0.039138,-0.03097 -0.154297,-0.09961 l -0.00196,0 c -0.074439,-0.04408 -0.1486559,-0.09079 -0.2207047,-0.138668 l -0.00781,-0.0059 c -0.08764,-0.05976 -0.1665976,-0.116866 -0.2402342,-0.173828 l -0.00196,-0.002 C 8.8807841,15.896339 8.8048448,15.83346 8.7304423,15.76788 l -0.00196,0 C 8.6272266,15.678873 8.5576376,15.620702 8.5214441,15.58624 l -0.00196,-0.002 -0.00196,-0.002 -0.00977,-0.01172 -0.013674,-0.01367 C 8.375134,15.440048 8.2628259,15.318168 8.1561823,15.189818 8.1187392,15.144776 8.0674172,15.075731 7.9999317,14.984739 l -0.00196,-0.0039 -0.00196,-0.002 C 7.9321807,14.894314 7.8707066,14.807614 7.8124044,14.719118 l -0.00196,-0.0039 C 7.7572144,14.633256 7.7080853,14.555234 7.663953,14.478854 l -0.00393,-0.0078 C 7.609199,14.380114 7.562505,14.289569 7.5174515,14.195649 l -0.00196,-0.0039 -0.00196,-0.0039 c -0.0569,-0.116059 -0.097548,-0.192774 -0.1152482,-0.234448 l 0,-0.0019 c -0.070064,-0.168045 -0.1322516,-0.33908 -0.183594,-0.513715 l 0,-0.0039 0,-0.002 c -0.010059,-0.03362 -0.027879,-0.102872 -0.054688,-0.208984 -0.032985,-0.13066 -0.059707,-0.263586 -0.082031,-0.396484 -0.015863,-0.09472 -0.028766,-0.16606 -0.035159,-0.21875 l 0,-0.0039 0,-0.0059 c -0.026082,-0.19872 -0.040905,-0.397233 -0.042971,-0.597651 0.00182,-0.116593 0.0076,-0.233427 0.01758,-0.349609 l 0,-0.0078 0.00196,-0.0059 c 0.00742,-0.103539 0.018031,-0.211356 0.033203,-0.322265 l 0,-0.002 0.00196,0 c 0.00618,-0.04658 0.012023,-0.09424 0.019529,-0.140625 l 0,-0.0039 c 0.021449,-0.128216 0.047982,-0.253205 0.078125,-0.375 0.0064,-0.02425 0.012786,-0.04812 0.019529,-0.07227 l 0.00196,-0.0059 0.00196,-0.0059 c 0.037392,-0.139916 0.07908,-0.275726 0.1269811,-0.408071 l 0,-0.002 c 4.83e-4,-0.0014 0.00145,-0.0026 0.00196,-0.0039 0.00415,-0.01113 0.00945,-0.0221 0.013674,-0.0332 l 0,-0.0039 0.00196,-0.002 C 7.3727054,10.115355 7.4295891,9.978225 7.4940635,9.843878 l 0.00393,-0.0059 0,-0.002 c 0.00567,-0.01144 0.011819,-0.02181 0.01758,-0.03321 l 0.00196,-0.0039 0.00196,-0.0039 C 7.5831835,9.66606 7.653227,9.538319 7.7284855,9.414121 7.7413595,9.392861 7.7543645,9.372691 7.7675505,9.351621 7.8528571,9.215577 7.9397202,9.086888 8.0331751,8.9648726 8.1351217,8.8318878 8.2395578,8.7094753 8.3476285,8.5937787 l 0.00393,-0.00393 0.00977,-0.00977 C 9.2761989,7.6074344 10.559363,7.0000055 11.999988,7.0000055 Z M 8.3085933,7.2854152 c -0.061576,0.048413 -0.1239803,0.095759 -0.1835939,0.1464845 0.059714,-0.050802 0.1219139,-0.09801 0.1835939,-0.1464845 z m 9.6601557,4.1054688 c 0.0206,0.200236 0.03125,0.403597 0.03125,0.609375 0,-0.20579 -0.01102,-0.408917 -0.03125,-0.609375 z M 5.9999995,12.000259 c 0.00313,0.126497 0.010328,0.252862 0.021485,0.378906 -0.011157,-0.126044 -0.018321,-0.252409 -0.021485,-0.378906 z m 0.2558595,1.71875 c 0.031392,0.0972 0.065256,0.193588 0.1015625,0.289062 -0.036309,-0.09547 -0.070173,-0.191859 -0.1015625,-0.289062 z m 2.9355468,3.572266 C 9.338748,17.369125 9.4892687,17.4408 9.642578,17.506118 9.4892687,17.440798 9.338748,17.369124 9.1914058,17.291275 Z m 5.8085932,-5.291016 c 0,1.656854 -1.343146,3 -3,3 -1.656854,0 -2.9999994,-1.343146 -2.9999994,-3 0,-1.656854 1.3431454,-3 2.9999994,-3 1.656854,0 3,1.343146 3,3 z"/>
</svg>

<svg xmlns="http://www.w3.org/2000/svg" width="24" height="24" version="1.1">
 <defs>
  <style id="current-color-scheme" type="text/css">
   .ColorScheme-Text { color:#dfdfdf; } .ColorScheme-Highlight { color:#4285f4; } .ColorScheme-NeutralText { color:#ff9800; } .ColorScheme-PositiveText { color:#4caf50; } .ColorScheme-NegativeText { color:#f44336; }
  </style>
 </defs>
 <path style="fill:currentColor" class="ColorScheme-Text" d="M 15,12 C 15,13.657 13.657,15 12,15 10.343,15 9,13.657 9,12 9,10.343 10.343,9 12,9 13.657,9 15,10.343 15,12 Z M 5.8322,4.0002 C 5.6216,4.0049 5.4383,4.0807 5.3009,4.2172 5.1057,4.4082 5,4.7174 5,5.1175 V 18.877 C 5,19.277 5.1147,19.587 5.3,19.778 5.5846,20.06 6.028,20.086 6.5334,19.785 L 18.361,12.893 C 19.213,12.402 19.213,11.602 18.361,11.102 L 17.883,10.823 C 17.335,8.0733 14.911,6.0002 12,6.0002 11.346,6.0002 10.716,6.1067 10.127,6.3002 L 6.5334,4.2074 C 6.2807,4.0619 6.0428,3.9958 5.8322,4.0002 Z M 12,7.0002 C 14.774,7.0002 17,9.227 17,12 17,12.189 16.967,12.374 16.945,12.561 L 10.049,16.576 C 9.3721,16.395 7,14.893 7,12 7,9.15 9.3995,7.0002 12,7.0002 Z M 22,18 17,21 V 15 Z"/>
</svg>
